src/assets/img/devices/jellybook.svg

<?xml version="1.0" encoding="UTF-8" standalone="no"?>
<svg
   version="1.1"
   id="Layer_1"
   x="0px"
   y="0px"
   width="100%"
   viewBox="0 0 2048 2048"
   enable-background="new 0 0 2048 2048"
   xml:space="preserve"
   sodipodi:docname="JellyBook.svg"
   inkscape:export-filename="JellyBook.png"
   inkscape:export-xdpi="96"
   inkscape:export-ydpi="96"
   inkscape:version="1.2.2 (b0a8486541, 2022-12-01)"
   xmlns:inkscape="http://www.inkscape.org/namespaces/inkscape"
   xmlns:sodipodi="http://sodipodi.sourceforge.net/DTD/sodipodi-0.dtd"
   xmlns="http://www.w3.org/2000/svg"
   xmlns:svg="http://www.w3.org/2000/svg"><defs
   id="defs365" /><sodipodi:namedview
   id="namedview363"
   pagecolor="#ffffff"
   bordercolor="#000000"
   borderopacity="0.25"
   inkscape:showpageshadow="2"
   inkscape:pageopacity="0.0"
   inkscape:pagecheckerboard="0"
   inkscape:deskcolor="#d1d1d1"
   showgrid="false"
   inkscape:zoom="0.39815173"
   inkscape:cx="977.01448"
   inkscape:cy="1005.8979"
   inkscape:window-width="1906"
   inkscape:window-height="1028"
   inkscape:window-x="0"
   inkscape:window-y="0"
   inkscape:window-maximized="1"
   inkscape:current-layer="Layer_1" />


<path
   id="path6"
   style="stroke:none;stroke-opacity:1;fill:#ffffff"
   inkscape:label="outline"
   d="M 1210.6094 305.90625 C 1151.1948 305.91934 1091.7797 306 1032.3652 306 C 966.86768 306 901.36974 305.87546 835.87305 306.11133 C 823.66915 306.15528 811.69737 308.26287 802.17578 317.21289 C 793.13125 325.71437 783.59558 333.73733 775.01562 342.67969 C 763.5947 354.58308 756.14746 369.08457 749.99609 384.31445 C 745.09438 396.4506 744.1782 409.19924 744.0957 421.95703 C 743.8371 461.95386 744.00219 501.9546 743.99219 541.95312 C 743.99182 543.61516 744.12745 545.33392 743.76172 546.92578 C 743.18561 549.43359 741.95202 550.88056 739.20898 548.80664 C 735.90089 546.30542 732.44512 543.99926 729.08008 541.57227 C 709.96288 527.78439 690.90176 513.91938 671.7168 500.22656 C 665.23865 495.60298 661.8974 495.57998 655.86328 500.12109 C 635.71513 515.28404 615.69808 530.61918 595.5918 545.83789 C 592.56439 548.12939 589.32933 550.14833 585.43555 552.80859 C 585.20063 550.10316 584.96954 548.80749 584.99414 547.51758 C 585.30816 531.05629 585.77552 514.59717 585.97461 498.13477 C 586.38923 463.84452 586.66015 429.55266 587.02148 395.26172 C 587.03704 393.78376 587.29908 392.29816 587.56055 390.83594 C 589.68993 378.92938 594.01086 367.90101 600.61719 357.73828 C 609.88267 343.48502 619.89774 329.90043 633.27148 319.11523 C 638.32233 315.04201 643.18189 310.733 648.75391 306 L 642.48633 306 C 615.32068 306 588.15363 306.07012 560.98828 305.97852 C 540.1099 305.90809 520.92245 311.20086 503.88477 323.5 C 478.30336 341.96663 464.22026 367.24258 464.19336 398.53711 C 463.88916 752.19034 464 1105.8466 464 1460 C 464 1530.9975 463.97271 1601.4953 464.06055 1671.9922 C 464.06641 1676.601 464.68545 1681.2596 465.5 1685.8086 C 469.25531 1706.7801 478.85442 1724.6134 494.58008 1739.084 C 511.5321 1754.6833 531.71982 1763.7417 554.51953 1763.8027 C 797.47004 1764.4514 1040.4218 1764.6841 1283.373 1764.9883 C 1346.2039 1765.0673 1409.0363 1764.992 1471.8672 1765.002 C 1492.2031 1765.0046 1510.9547 1759.7661 1527.5996 1747.8828 C 1553.5842 1729.3318 1567.8003 1703.8198 1567.8223 1672.1035 C 1568.0924 1279.6183 1568 887.12993 1567.959 494.64453 C 1567.9587 490.51769 1567.4768 486.38024 1567.0488 482.26562 C 1564.4982 457.75286 1553.2303 437.71329 1534.9395 421.65234 C 1528.6486 416.12855 1521.879 410.81055 1513.2773 408.89258 C 1508.0647 407.73029 1504.5018 410.18467 1504.0391 415.47266 C 1503.8943 417.12706 1503.998 418.80417 1503.998 420.4707 C 1503.9987 822.28903 1503.9987 1224.1094 1503.998 1625.9277 C 1503.998 1627.761 1504.1045 1629.6034 1503.9609 1631.4258 C 1503.3226 1639.5316 1495.7077 1644.7321 1487.9043 1642.4473 C 1481.5809 1640.5957 1479 1636.2956 1479 1627.5859 C 1479 1213.9348 1479.0016 800.28211 1478.9688 386.63086 C 1478.9686 383.83264 1478.8262 380.95441 1478.1797 378.25 C 1475.3699 366.49718 1470.6738 355.6034 1463.4824 345.76367 C 1444.9842 320.45257 1419.9394 306.36364 1388.8516 306.2207 C 1329.4383 305.94743 1270.0238 305.89316 1210.6094 305.90625 z M 980.08398 664.29688 C 1041.6638 664.29687 1239.6031 1024.4279 1209.7031 1084.4277 C 1179.8033 1144.4277 780.69283 1145.1277 750.46289 1084.4277 C 720.23295 1023.7279 918.49412 664.29687 980.08398 664.29688 z M 980.11328 756.47656 C 939.76336 756.47656 809.8441 991.9879 829.66406 1031.7578 C 849.48402 1071.5278 1110.9725 1071.0878 1130.5625 1031.7578 C 1150.1525 992.4179 1020.4632 756.47656 980.11328 756.47656 z M 980.08398 842.61719 C 1000.524 842.62719 1066.2032 962.12689 1056.2832 982.04688 C 1046.3632 1001.9669 913.9228 1002.1869 903.88281 982.04688 C 893.84282 961.9069 959.644 842.61719 980.08398 842.61719 z " />

















































































































































































<g
   id="banner-dark-icon"
   transform="translate(718.66346,640.99733)"
   style="display:inline;fill:none;stroke:none" /></svg>

<svg xmlns="http://www.w3.org/2000/svg" xml:space="preserve" viewBox="0 0 2048 2048"><path fill="#fff" d="M1210.6 305.91c-59.415.013-118.83.094-178.24.094-65.498 0-131-.125-196.49.111-12.204.044-24.176 2.152-33.697 11.102-9.045 8.502-18.58 16.524-27.16 25.467-11.421 11.903-18.868 26.405-25.02 41.635-4.902 12.136-5.818 24.885-5.9 37.643-.259 39.997-.094 79.998-.104 120 0 1.662.135 3.38-.23 4.973-.576 2.508-1.81 3.955-4.553 1.88-3.308-2.5-6.764-4.807-10.13-7.234-19.116-13.788-38.177-27.653-57.362-41.346-6.478-4.623-9.82-4.646-15.854-.105-20.148 15.163-40.165 30.498-60.271 45.717-3.027 2.291-6.263 4.31-10.156 6.97-.235-2.705-.466-4-.441-5.29.314-16.461.78-32.92.98-49.383.415-34.29.686-68.582 1.047-102.87.015-1.478.277-2.964.539-4.426 2.13-11.907 6.45-22.935 13.057-33.098 9.265-14.253 19.281-27.838 32.654-38.623 5.05-4.073 9.91-8.382 15.482-13.115h-6.268c-27.166 0-54.333.07-81.498-.022-20.878-.07-40.066 5.223-57.104 17.521-25.58 18.467-39.665 43.743-39.69 75.037-.305 353.65-.194 707.31-.194 1061.5 0 70.998-.027 141.5.06 211.99.006 4.609.625 9.268 1.44 13.816 3.755 20.972 13.354 38.805 29.08 53.275 16.952 15.6 37.14 24.658 59.939 24.72 242.95.648 485.9.88 728.85 1.185 62.83.079 125.66.004 188.49.014 20.336.002 39.088-5.236 55.732-17.12 25.985-18.55 40.2-44.062 40.223-75.778.27-392.49.178-784.97.137-1177.5 0-4.127-.483-8.265-.91-12.38-2.551-24.512-13.819-44.551-32.11-60.612-6.29-5.524-13.06-10.842-21.662-12.76-5.212-1.163-8.775 1.292-9.238 6.58-.145 1.654-.04 3.331-.04 4.998v1205.5c0 1.833.106 3.675-.038 5.498-.638 8.106-8.253 13.306-16.057 11.022-6.323-1.852-8.904-6.152-8.904-14.861 0-413.65.001-827.3-.031-1241 0-2.798-.143-5.677-.79-8.381-2.81-11.753-7.505-22.647-14.697-32.486-18.498-25.311-43.543-39.4-74.63-39.543-59.414-.273-118.83-.328-178.24-.315zM980.07 664.3c61.58 0 259.52 360.13 229.62 420.13-29.9 60-429.01 60.7-459.24 0-30.23-60.7 168.03-420.13 229.62-420.13zm.03 92.18c-40.35 0-170.27 235.51-150.45 275.28 19.82 39.77 281.31 39.33 300.9 0 19.59-39.34-110.1-275.28-150.45-275.28zm-.03 86.141c20.44.01 86.119 119.51 76.199 139.43-9.92 19.92-142.36 20.14-152.4 0-10.04-20.14 55.761-139.43 76.201-139.43z"/></svg>
